X:1
T:Pa... pa... pa...
T:Die Zauberflöte, Act II, Scene 8
T:W.A. Mozart
T:Edited by Alex Cook
C:Wolfgang Amadeus Mozart
%%score 1 2 { 3 | 4 }
L:1/8
Q:1/2=100
M:2/2
K:G
V:1 treble nm="Papagena" snm="Pa."
V:2 bass nm="Papageno" snm="Po."
V:3 treble nm="Piano" snm="Pno."
V:4 bass 
V:1
"^Allegretto" z8 | z8 | z8 | z8 | z8 | z8 | z8 | z8 | z8 | z8 | z4 A2 z2 | z4 A2 z2 | B2 z2 z4 | %13
w: ||||||||||Pa|pa|pa|
 z8 | z2 z2 c2 z2 | A2 z2 d2 z2 | G2 z2 z4 | z8 | z2 A2 A2 A2 | A2 A2 A2 A2 | B2 z2 z4 | %21
w: |pa|pa pa|pa||pa pa pa|pa pa pa pa|pa|
 z z d d d2 d2 | E2 z2 z4 | z d d d d d d d | G2 G2 z4 | z8 | z2 d4 (cB) | A2 A2 B2 c2 | c2 B2 z4 | %29
w: pa pa pa pa|pa|pa pa pa pa pa Pa- pa-|ge- no!||Nun bin *|ich dir ganz ge-|ge- ben!|
 z8 | z4 (Bc) (dB) | A2 A2 B2 B2 | A2 A A B2 B2 | A2 A A B2 B2 | A2 D2 z4 | z8 | z8 | z8 | %38
w: |Nun, * so *|sei mein Her- zens-|täub- chen, mein Her- zens-|täub- chen, mein Her- zens-|täub- chen!||||
 z2 d4 (ef) | g2 e2 ^c2 e2 | d2 z2 z4 | z8 | z2 d4 (ef) | g2 e2 ^c2 e2 | d2 d2 f2 e2 | %45
w: Wel- che *|Freu- de wird das|sein,||wenn die *|Göt- ter uns be-|den- ken, uns- rer|
 d2 ^c2 B2 A2 | G2 G2 e2 d2 | ^c2 B2 A2 G2 | F2 F F d2 ^c2 | B2 A2 G2 F2 | E4[Q:1/2=90] F2 F2 | %51
w: Lie- be Kin- der|schen- ken, uns- rer|Lie- be Kin- der|schen- ken so lie- be,|klei- ne Kin- der-|lein, Kin- der-|
 E4 z4 | z4 d2 d2 |[Q:1/2=80] ^c4 z4 | z4 f2 f2 | e3 e f2 f2 | g2 g2 e2 e2 | f2 f2 (gf) (ef) | %58
w: lein,|Kin- der-|lein,|Kin- der-|lein, so lie- be|klei- ne Kin- der-|lein, so lie- * be *|
 g2 g2 e2 e2 |[Q:1/2=120] d2 z2 z4 | z8 | z4 d4- | d2 d d d d d d | d2 A2 z4 | z8 | z4 d4- | %66
w: klei- ne Kin- der-|lein!||Dann|* ei- ne klei- ne Pa- pa-|ge- na,||dann|
 d2 d d d d d d | d c z2 z2 c c | c A z2 z2 c c | c A f f f d a a | a8 | %71
w: * wie- der- ei- ne Pa- pa-|ge- na Pa- pa-|ge- na Pa- pa-|ge- na Pa- pa- ge- na Pa- pa-|ge-|
[Q:1/4=120] c2 z2[Q:1/2=120] !fermata!z4 | z2 B2 B2 B2 | c2 c2 (cB) (cd) | B2 G2 z4 | z8 | %76
w: na|Es ist das|höch- ste der * Ge- *|füh- le,||
 z2 G2 B2 G2 | d8- | d8- | d6 d2 | d d d d d d d d | B2 d2 z2 d2 | d4 d4 | e4- (eg) (ec) | B4 A4 | %85
w: wenn vie- le|vie||* le|Pa- pa- pa- pa- pa- pa- pa- pa-|ge- na der|El- tern|Se- * * gen *|wer- den|
 G2 z2 z4 | z8 | z2 G2 G2 B2 | D2 D2 D2 (EF) | G2 G2 z4 | z B B B c d e f | g d B B c d e f | %92
w: sein.||Es ist das|höch- ste der Ge- *|füh- le|wenn vie- le Pa- pa- pa- pa-|ge- na Pa- pa- pa- pa- pa- pa-|
 g d B B c d e f | g d f d g d f d | g2 d2 z2 d2 | d4 d4 | e4- (eg) (ec) | B4 A4 | G2 z2 z2 gg | %99
w: ge- na Pa- pa- pa- pa- pa- pa-|ge- na Pa- pa- pa- pa- pa- pa-|ge- na der|El- tern|Se- * * gen *|wer- den|sein. Pa- pa-|
 d d z2 z2 g g | d d z2 z2 g g | d d g g e e g g | d2 d d e2 e2 | d2 d2 F2 F2 | G2 z2 z2 g g | %105
w: ge- na, Pa- pa-|ge- no, Pa- pa-|pa- pa- pa- pa- pa- pa- pa- pa-|ge- na der El- tern|Se- gen wer- den|sein. Pa- pa-|
 d d z2 z2 g g | d d z2 z2 g g | d d g g e e g g | d2 d d e2 e2 | d2 d2 f2 f2 | g3 g e2 e2 | %111
w: ge- na, Pa- pa-|ge- na, Pa- pa-|pa- pa- pa- pa- pa- pa- pa- pa-|ge- na der El- tern|Se- gen wer- den|sein, der El- tern|
 d2 d2 f2 f2 | g3 g e2 e2 | d2 B2 c2 A2 | G2 z2 z4 | z2 d d d d d d | g d z2 z4 | z2 z2 z4 | %118
w: Se- gen wer- den|sein, der El- tern|Se- gen wer- den|sein.|Pa- pa- pa- pa- pa- pa-|ge- na,||
 z2 d d d d d d | g d d d d d d d | g d d d d d d d | g8 | d2 z2 z4 | z8 | z8 | z8 | z8 | %127
w: Pa- pa- pa- pa- pa- pa-|ge- na, Pa- pa- pa- pa- pa- pa-|ge- na, Pa- pa- pa- pa- pa- pa-|ge-|na!|||||
[Q:1/2=80] z8[Q:1/2=120][Q:1/2=80][Q:1/2=120] |[Q:1/2=80] z8 |] %129
w: ||
V:2
 z8 | z8 | z8 | z8 | z8 | z8 | z8 | z8 | z4 G,2 z2 | z4 G,2 z2 | A,2 z2 z4 | z8 | z4 G,2 z2 | %13
w: ||||||||Pa|pa|pa||pa|
 B,2 z2 D2 z2 | E,2 z2 z4 | z8 | z2 G,2 G,2 G,2 | G,2 G,2 G,2 G,2 | A,2 z2 z4 | z8 | %20
w: pa pa|pa||pa pa pa|pa pa pa pa|pa||
 z2 G, G, G,2 G,2 | D2 z2 z4 | z C C C C C C C | F,2 F,2 z4 | z2 B,4 (A,G,) | F,2 F,2 G,2 A,2 | %26
w: pa pa pa pa|pa|pa pa pa pa pa Pa- pa-|ge- na!|Bist du *|mir nun ganz ge-|
 G,2 G,2 z4 | z8 | z4 (B,C) (DB,) | A,2 A,2 B,2 B,2 | A,2 D,2 z4 | z8 | z2 F,2 G,2 G,2 | %33
w: ge- ben?||Nun, * so *|sei mein lie- bes|Weib- chen!||mein lie- bes|
 F,2 F, F, G,2 B,2 | D2 D,2 z4 | z8 | z2 A,4 (B,A,) | G,2 E,2 A,2 G,2 | F,2 z2 z4 | z8 | %40
w: Weib- chen, mein lie- bes|Weib- chen!||Wel- che *|Freu- de wird das|sein,||
 z2 A,4 ((B,A,)) | G,2 E,2 A,2 G,2 | F,2 F,2 z4 | z8 | z2 z2 D2 ^C2 | B,2 A,2 G,2 F,2 | %46
w: wenn die *|Göt- ter uns be-|den- ken,||uns- rer|Lie- be Kin- der|
 E,2 E,2 ^C2 B,2 | A,2 G,2 F,2 E,2 | D,2 D, D, B,2 A,2 | G,2 F,2 E,2 D,2 | ^C,4 D,2 D,2 | ^C,4 z4 | %52
w: schen- ken, uns- rer|Lie- be Kin- der|schen- ken so lie- be,|klei- ne Kin- der-|lein, Kin- der-|lein,|
 z4 F,2 F,2 | E,4 z4 | z4 D2 D2 | ^C3 C D2 D2 | B,2 B,2 ^C2 C2 | D2 D2 (ED) (^CD) | E2 E2 ^C2 C2 | %59
w: Kin- der-|lein,|Kin- der-|lein, so lie- be|klei- ne Kin- der-|lein, so lie- * be *|klei- ne Kin- der-|
 D2 z2 D4- | D2 D D D D D D | D2 G,2 z4 | z8 | z4 D4- | D2 D D D D D D | D2 B,2 z4 | z8 | %67
w: lein! Erst|* ei- nen klei- nen Pa- pa-|ge- no,||dann|* wie- der ei- nen Pa- pa-|ge- no,||
 z2 C C C A, z2 | z2 C C C A, z2 | z2 C C C A, C C | C8 | A,2 z2 !fermata!z4 | z8 | z8 | %74
w: Pa- pa- ge- no|Pa- pa- ge- no|Pa- pa- ge- no Pa- pa-|ge-|no|||
 z2 G,2 G,2 B,2 | D,2 D,2 D,2 (E,F,) | G,2 G,2 z4 | z D, D, E, F, G, A, F, | %78
w: Es ist das|höch- ste der Ge- *|füh- le,|wenn vie- le Pa- pa- pa- pa-|
 G, D, D, E, F, G, A, F, | G, D, D, E, F, G, A, F, | G, D, F, D, G, D, F, D, | G,2 G,2 z2 B,2 | %82
w: ge- no, Pa- pa- pa- pa- pa- pa-|ge- no Pa- pa- pa- pa- pa- pa-|pa- pa- pa- pa- pa- pa- pa- pa-|ge- no der|
 B,4 B,4 | C4- (CE) (CA,) | G,4 F,4 | G,2 B,2 B,2 B,2 | C2 C2 (CB,) (CD) | B,2 G,2 z4 | z8 | %89
w: El- tern|Se- * * gen *|wer- den|sein. Es ist das|höch- ste der * Ge- *|füh- le||
 z2 G,2 B,2 G,2 | D8- | D8- | D6 D2 | D D D D D D D D | D2 B,2 z2 B,2 | B,4 B,4 | C4- (CE) (CA,) | %97
w: wenn vie- le,|vie||* le|Pa- pa- pa- pa- pa- pa- pa- pa-|ge- no der|El- tern|Se- * * gen *|
 G,4 F,4 | G,2 z2 z2 G,G, | B, B, z2 z2 G, G, | B, B, z2 z2 G, G, | B, B, G, G, C C G, G, | %102
w: wer- den|sein. Pa- pa-|ge- no, Pa- pa-|ge- no, Pa- pa-|pa- pa- pa- pa- pa- pa- pa- pa-|
 B,2 B, B, C2 C2 | B,2 B,2 A,2 A,2 | G,2 z2 z2 G, G, | B, B, z2 z2 G, G, | B, B, z2 z2 G, G, | %107
w: ge- no der El- tern|Se- gen wer- den|sein. Pa- pa-|ge- no, Pa- pa-|ge- no, Pa- pa-|
 B, B, G, G, C C G, G, | B,2 B, B, C2 C2 | B,2 B,2 A,2 A,2 | B,3 B, C2 C2 | B,2 B,2 A,2 A,2 | %112
w: pa- pa- pa- pa- pa- pa- pa- pa-|ge- no der El- tern|Se- gen wer- den|sein, der El- tern|Se- gen wer- den|
 B,3 B, C2 C2 | B,2 G,2 A,2 F,2 | G,2 z2 z4 | z8 | z8 | z2 D D D D D D | B, D D D D D D D | %119
w: sein, der El- tern|Se- gen wer- den|sein.|||Pa- pa- pa- pa- pa- pa-|ge- no, Pa- pa- pa- pa- pa- pa-|
 B, D D D D D D D | B, D D D D D D D | B,8 | G,2 z2 z4 | z8 | z8 | z8 | z8 | z8 | z8 |] %129
w: ge- no, Pa- pa- pa- pa- pa- pa-|ge- no, Pa- pa- pa- pa- pa- pa-|ge-|no!|||||||
V:3
 z2 z2 .g2 z2 | .d2 z2 (Tg3 f/g/ | .a2) z2 .a2 z2 | .d2 z2 (Ta3 g/a/ | .b2 z2 .g2) z2 | %5
 .b2 z2 .d'2 z2 | .e2 z2 (c'3 (3b/a/g/ | .f2) z2 .d'2 z2 | .g2 z2 .g2 z2 | .d2 z2 (Tg3 f/g/ | %10
 .a2) z2 .a2 z2 | .d2 z2 (Ta3 g/a/ | .b2 z2 .g2) z2 | .b2 z2 .d'2 z2 | .e2 z2 (c'3 (3b/a/g/ | %15
 .f2) z2 .d'2 z2 | .g2 z2 .g2 z2 | .d2 z2 (Tg3 f/g/ | .a2) z2 .a2 z2 | .d2 z2 (Ta3 g/a/ | %20
 .b2 z2 .g2) z2 | .b2 z2 .d'2 z2 | .e2 z2 (c'3 (3b/a/g/ | .f2) z2 .d'2 z2 | g2 [GB]4 [FA][EG] | %25
 [DF]2 [DF]2 [EG]2 [FA]2 | [EG]2 [Bd]4 [Ac][GB] | [FA]4 [GB]2 [Ac]2 | %28
 [Ac]2 [GB]2 [GB][Ac][Bd][GB] | [FA]2 z2 [GB]2 z2 | [FA]2 z2 [gb][ac'][bd'][gb] | %31
 [fa]2 z2 [gb]2 z2 | [fa]2 [fa]2 [gb]2 [gb]2 | [fa][fa][fa][fa] [gb][gb][gb][gb] | %34
 [fa]2 [Af]2 [Aa]2 [dd']2 | d2 de ^cdBc | A2!p! a4 ba | g2 e2 a2 g2 | f2 d'4 e'f' | %39
 g'2 e'2 ^c'2 e'2 | d'2 a4 ba | g2 e2 a2 g2 | f2 d'4 e'f' | g'2 e'2 ^c'2 e'2 | %44
 d'2 z2 [df]2 [^ce]2 | [Bd]2 [A^c]2 [GB]2 [FA]2 | [EG]4 [^ce]2 [Bd]2 | [A^c]2 [GB]2 [FA]2 [EG]2 | %48
 [DF]4 [Bd]2 [A^c]2 | [GB]2 [FA]2 [EG]2 [DF]2 | [^CE]4"^ritard." .[Adf]2 .[Adf]2 | %51
 [A^ce]4"^opt."!8va(! .[ad'f']2 .[ad'f']2 | [a^c'e']4!8va)! .[Ad]2 .[Ad]2 | %53
 [A^ce]4!8va(! .[ad'f']2 .[ad'f']2 | [a^c'e']4!8va)! .[Adf]2 .[Adf]2 | [A^ce]4 .[df]2 .[df]2 | %56
 .[Bg]2 .[Bg]2 .[^ce]2 .[ce]2 | .[df]2 .[df]2 .[eg].[df].[^ce].[df] | %58
 .[eg]2 .[eg]2 .[^ce]2 .[ce]2 |!f! ddef gab^c' | d'2!p! .[Adf] z .[dfa] z .[fad'] z | %61
 g!f!def gab^c' | d'2!p! .[Bg] z .[gb] z .[gbd'] z | [FA]def gab=c' | %64
 d'2!p! .[Acf] z .[Aca] z .[ad'] z |!f! [GB]def gabc' | d'2!p! .[dg] z .[db] z .[dbd'] z | %67
 z2 [DFAc]2 z2 [DFAc]2 | z2 [DFAc]2 z2 [DFAc]2 |"_cresc." z2 [dfac']2 [dfac']2 [dfac']2 | %70
 [cfac']8- | [cfac']2 z2 !fermata!z4 |!p! GDGD GDGD | FDFD FDFD | [DGB]2 g2 g2 b2 | %75
 [Fd]2 d2 d2 ef | [Gg]2 G2 B2 G2 | z4 [ac']4 | [gb]2 z2 [ac']4 | [gb]2 z2 [ac']4 | %80
 [gb][gb][ac'][ac'] [gb][gb][ac'][ac'] | [dgb].[gb].[bd'].[gb] .[bd'].[gb].[bd'].[gb] | %82
 [GBd]2 [GBd]4 [GBd]2 | [Gce]2 [Gc-e-]2 [ce][eg][Gce][EAc] | [DGB]2 [DGB]2 [CDFA]2 [CDFA]2 | %85
 [B,DG]2 b2 b2 b2 | [fac']2 c'2 c'b c'd' | [gb]2 g2 g2 b2 | [cf]8 | [Bg]2 G2 B2 G2 | %90
 z2 z!mf! B cdef | g2 z B cdef | g2 z B cdef |!p! .[Bg].d.[cf].d .[Bg].d.[cf].d | %94
!f! .[bd'].[dgb].[bd'].[dgb] .[bd'].[dgb].[bd'].[dgb] |!p! [GBd]2 [GBd]4 [GBd]2 | %96
 [Gce]2 [Gc-e-]2 [ce][eg][Gce][EAc] | [DGB]2 [DGB]2 [CDFA]2 [CDFA]2 | %98
 [B,DG]2 [Gg][Gg] [ce][ce][Gg][Gg] | [Bd][Bd][Gg][Gg] [ce][ce][Gg][Gg] | %100
 [Bd][Bd][Gg][Gg] [ce][ce][Gg][Gg] | [Bd][Bd][Gg][Gg] [ce][ce][Gg][Gg] | %102
 [Bd]2 [Bd]2"_cresc." [ce]2 [ce]2 | [GBd]2 [GBd]2!f! [Adf]2 [Adf]2 | %104
 [Bdg]2!p! [Gg][Gg] [ce][ce][Gg][Gg] | [Bd][Bd][Gg][Gg] [ce][ce][Gg][Gg] | %106
 [Bd][Bd][Gg][Gg] [ce][ce][Gg][Gg] | [Bd][Bd][Gg][Gg] [ce][ce][Gg][Gg] | %108
 [Bd]2 [Bd]2"_cresc." [ce]2 [ce]2 | [gb]4 [fa]4 |!p! [Bdg][dg][dg][dg] [ce][ce][ce][ce] | %111
 [Bd][Bd][Bd][Bd] [Af][Af][Af][Af] |!f! [bd'][bd'][bd'][bd'] [ac'][ac'][ac'][ac'] | %113
 [gb][gb][gb][gb] [fa][fa][fa][fa] | [Bdg]2!p! .[dd'].[dd'] .[dd'].[dd'].[dd'].[dd'] | %115
 [gg']2 z2 [cdf]2 z2 | [Bg]2 .[Dd].[Dd].[Dd].[Dd].[Dd].[Dd] | [B,B]2 z2 [A,CF]4 | %118
 [G,B,G]2 z2!f! [Adfa]2 z2 | [GBdg]2 z2 [Adfa]2 z2 | [GBdg]2 z2 [Adfa]2 z2 | %121
 [GBdg]2 [gb][gb] [gb][gb][gb][gb] | [bg']2 [bd'][bd'] [bd'][bd'][bd'][bd'] | %123
 [gb][gb][gbd'][gbd'] [gbd'][gbd'][fad'][fad'] | [gb][gb][gbd'][gbd'] [gbd'][gbd'][fad'][fad'] | %125
 [gb][dgd'][gb][dgd'] [gb][dgd'][gb][dgd'] | b2 [GBdg]2 [GBdg]2 [GBdg]2 | [GBdg]2 z2 [dgb]2 z2 | %128
 [GBdg]4 !fermata!z4 |] %129
V:4
!p! G,,2 .D2 .B,2 .D2 | .G,2 .D2 .B,2 .D2 | .[F,A,]2 .D2 .C2 .D2 | .[D,A,]2 .F2 .D2 .F2 | %4
 .[G,B,]2 .G2 .D2 .G2 | .[B,,G,]2 .G2 .D2 .G2 | .[C,G,]2 .G2 .E2 .A2 | .[D,A,]2 .F2 .C2 .A2 | %8
 .[G,B,]2 .D2 .B,2 .D2 | .G,2 .D2 .B,2 .D2 | .[F,A,]2 .D2 .C2 .D2 | .[D,A,]2 .F2 .D2 .F2 | %12
 .[G,B,]2 .G2 .D2 .G2 | .[B,,G,]2 .G2 .D2 .G2 | .[C,G,]2 .G2 .E2 .A2 | .[D,A,]2 .F2 .C2 .A2 | %16
 .[G,B,]2 .D2 .B,2 .D2 | .G,2 .D2 .B,2 .D2 | .[F,A,]2 .D2 .C2 .D2 | .[D,A,]2 .F2 .D2 .F2 | %20
 .[G,B,]2 .G2 .D2 .G2 | .[B,,G,]2 .G2 .D2 .G2 | .[C,G,]2 .G2 .E2 .A2 | .[D,A,]2 .F2 .C2 .A2 | %24
 .G,2 B,4 A,G, | F,2 F,2 G,2 A,2 | G,2 G,4 A,G, | F,2 F,2 G,2 A,2 | A,2 G,2 z4 | D,2 z2 G,2 z2 | %30
 D,2 z2 B,CDB, | D,2 z2 G,2 z2 | D,2"^cresc." D,2 G,2 G,2 | D,2 D,2 G,2 G,2 | D,2!f! D2 A,2 F,2 | %35
 D,2 D,2 ^C,2 B,,2 | A,,2 A,2 A,2 A,2 | ^C8{B,C} | D2 z2 [DF]2 z2 | [^CE]2 z2 [EG]2 z2 | %40
 [DF]2 z2 z4 | ^C8{B,C} | D2 z2 [DF]2 z2 | [^CE]2 z2 [EG]2 z2 | [DF]2 z2 [DF]2 [^CE]2 | %45
 [B,D]2 [A,^C]2 [G,B,]2 [F,A,]2 | [E,G,]4 [^CE]2 [B,D]2 | [A,^C]2 [G,B,]2 [F,A,]2 [E,G,]2 | %48
 D,6 E,F, | G,6 ^G,2 | A,4 .D,2 .D,2 | A,,4 .D,2 .D,2 | A,,4 .D2 .D2 | A,4 .D2 .D2 | A,4 .D2 .D2 | %55
 A,4 .D2 .D2 | .G,2 .G,2 .A,2 .A,2 | .D2 .D2 .B,2 .B,2 | .G,2 .G,2 .A,2 .A,2 |"^a tempo" [D,-D]8 | %60
 D,8 | E,8- | E,8 |!f! F,8- | F,8 | G,8- | G,8 | D,2 z2 D,2 z2 | D,2 z2 D,2 z2 | D,2 D2 A,2 F,2 | %70
!f! D,8- | D,2 z2 !fermata!z4 | [G,B,D]8 | [D,D]8 | G,,2 z2 z4 | [D,CD]2 z2 z4 | [G,D]2 z2 z4 | %77
 z D,D,E,!mf! F,G,A,F, | G,D,D,E, F,G,A,F, | G,D,D,E, F,G,A,F, |!p! G,D,F,D, G,D,F,D, | %81
!f! .G,.B,.G,.B, .G,.B,.G,.B, |!p! G,G,G,G, G,G,G,G, | C,C,C,C, C,C,C,C, | D,D,D,D, D,D,D,D, | %85
 G,,2 z2 z4 | D,2 z2 z4 | G,2 G,2 G,2 B,2 | D,2 D,2 D,2 E,F, | G,2 z2 z4 | z4 [D,A,C]4 | %91
 [G,B,]2 z2 [D,A,C]4 | [G,B,]2 z2 [D,A,C]4 | %93
 .[G,B,].[G,B,].[D,A,C].[A,C] .[G,B,].[G,B,].[D,A,C].[A,C] | .G,.B,.G,.B, .G,.B,.G,.B, | %95
 G,G,G,G, G,G,G,G, | C,C,C,C, C,C,C,C, | D,D,D,D, D,D,D,D, | [G,B,D]2 z2 [G,CE]2 z2 | %99
 [G,B,D]2 z2 [G,CE]2 z2 | [G,B,D]2 z2 [G,CE]2 z2 | [G,B,D]2 z2 [G,CE]2 z2 | G,G,G,G, CCCC | %103
 DDDD D,D,D,D, | G,2 z2 [G,CE]2 z2 | [G,B,D]2 z2 [G,CE]2 z2 | [G,B,D]2 z2 [G,CE]2 z2 | %107
 [G,B,D]2 z2 [G,CE]2 z2 | G,G,G,G, C,C,C,C, |!f! D,D,D,D, C,C,C,C, | B,,B,,B,,B,, C,C,C,C, | %111
 D,D,D,D, CCCC | B,B,B,B, CCCC | DDDD D,D,D,D, | G,2 z2 z4 | z8 | z2 z2 z4 | z4 D,4 | %118
 G,,2 G,,2 D,2 D,2 | G,2 G,2 D,2 D,2 | G,2 G,2 D,2 D,2 | [G,,G,]2 G,G, G,G,G,G, | z2 G,G, B,B,DD | %123
 G,G,G,G, B,B,DD | G,G,G,G, B,B,DD | G,B,G,B, G,B,G,B, | G,2 G,2 D,2 B,,2 | G,,2 z2 G,2 z2 | %128
 G,,4 z4 |] %129

